X:1
T:Knut Håkanson (1887-1929)
T:Text: Samuel Columbus
T:Lustwins Wijsa
%%score [ 1 2 3 4 ]
L:1/8
Q:1/4=160
M:2/2
K:C
V:1 treble nm="S"
V:2 treble nm="A"
V:3 treble-8 nm="T"
V:4 bass nm="B"
V:1
"^Allegro"!f! GG | c2 c2 (Bc)(dB) | c4!mp! .e2 .e2 | .d2 .d2 .c2 .A2 | G4 !breath!G2!f! EE | %5
w: Mu- si-|can- ter spee- * ler *|opp, kunn' I|dock så wack- ert|lå- ta; Sträng- je-|
w: Lus- tig|Gos- sar, den- * ne *|Dag Wij så|hag- ligt lå- tom|qwä- dom: Wij- san|
 A2 A2 B2 B2 | c4 .d2 .d2 | .B2 .A2 .d2 .B2 | A4 G2 z2 |!mf! A6 B2 | G6 c2 | F6 (BG) | E8 | %13
w: klang gör Mood i|Kropp, hwad kan|Twist och o- ljud|bå- ta?|Lil- la|Gos- se|stämm wäl *|inn,|
w: haar ock wack- ert|laag: nu wäl-|ann, wij sam- man|trä- dom,|ut- i|Flo- ræ|Ro- sen- *|gåhl,|
!<(! F2 G2 A2 B2!<)! | (c8- | c3 _B) (A2 G2) |!>(! E4 ^F4!>)! | (d2 f2) (e2 d2) | e4 (d2 c2) | %19
w: lätt din skä- ra|Röst|* * op- *|gjäl- la|hur * en *|Pillt hoos *|
w: mä- dan wäd- ret|så|* * will *|skick- a|al- * la *|wack- ra *|
 d4 (c2 _B2) | A8 | z8 |!<(! F2 G2 A2 _B2!<)! | (c2 A2) (_B2 c2) |!<(! d4 d2!<)!!f! GG | %25
w: Wän- nen *|sin,||ald- ra- fog- ligst|sig * skall *|stäl- la. Mu- si-|
w: Flick- ors *|skål,||will wij där i|af- * ton *|dric- ka. Lus- tig|
 c2 c2 (Bc)(dB) | c4 z2 dd | e2 e2 (de)(fd) | e4 z4 |!ff! cG (g6- | g2 f4 e2- | e2 d4) e2 | %32
w: can- ter spee- * ler *|opp, Mu- si-|can- ter spee- * ler *|opp,|Mu- si- can-||* * ter|
w: Gos- sar, den- * ne *|Dag, lus- tig|Gos- sar, den- * ne *|Dag,|al- la wack-||* * ra|
"^rit. molto""^rit. molto""^rit. molto""^rit. molto" c2 (cc)"^ten." f4 | (e3 (d/c/) d2) d2 | %34
w: Î spee- ler opp,|spee- * * * ler|
w: Gos- sars * skål,|al- la * Gos- sars|
 !fermata!c6 z2 |] %35
w: opp!|
w: skål!|
V:2
!f! GG | G2 G2 G2 G2 | G4!mp! .c2 .c2 | .A2 ._B2 .G2 .F2 | D4 !breath!E2!f! EE | E2 E2 E2 E2 | %6
w: Mu- si-|can- ter spee- ler|opp, kunn' I|dock så wack- ert|lå- ta; Sträng- je-|klang gör Mood i|
w: Lus- tig|Gos- sar, den- ne|Dag Wij så|hag- ligt lå- tom|qwä- dom: Wij- san|haar ock wack- ert|
 E4 .D2 .D2 | .D2 .D2 .D2 .E2 | (E2 D2) B,2 z2 |!mf! (!courtesy!=F2 E2 D4- | D2) G,2 C4- | %11
w: Kropp, hwad kan|Twist och o- ljud|bå- * ta?|Lil- * *|* la Gos-|
w: laag: nu wäl-|ann, wij sam- man|trä- * dom,|ut- * *|* i Flo-|
 C2 D2 B,4- | B,2 D2 (C2 A,2) |!<(! D2 E2 F2 G2!<)! | (C8- | C2 G2) (F2 E2) |!>(! (D2 ^C2) D4!>)! | %17
w: * se stämm|* wäl inn, *|lätt din skä- ra|Röst|* * op- *|gjäl- * la|
w: * ræ Ro-|* sen- gåhl, *|mä- dan wäd- ret|så|* * will *|skick- * a|
 (GA _B2 G4- | G2) C2 F4- | F2 G2 E4- | E2 G2 (F2 D2) | z8 |!<(! A,2 _B,2 C2!<)! D2 | %23
w: hur * * *|* en Pillt|* hoos Wän-|* nen sin, *||ald- ra- fog- ligst|
w: al- * * *|* la wack-|* ra Flick-|* ors skål, *||will wij där i|
 (_E2 F2) (G2 A2) |!<(! D4 (D!<)!E)!f! FG | E2 E2 G2 G2 | C4 z2 GG | c2 c2 G2 (AB) | c4 z4 | %29
w: sig * skall *|stäl- la. * Mu- si-|can- ter spee- ler|opp, Mu- si-|can- ter spee- ler *|opp,|
w: af- * ton *|dric- ka. * Lus- tig|Gos- sar, den- ne|Dag, lus- tig|Gos- sar, den- ne *|Dag,|
!ff! G4 (A2 B2) | c4 B4 | A4 G4 | A2 z2 z2 AA | G6 G2 | !fermata!E6 z2 |] %35
w: Mu- si- *|can- ter|spee- ler|opp, spee- ler|opp, speel|opp!|
w: al- la *|wack- ra|Gos- sars|skål, al- la|Gos- sars|skål!|
V:3
!f! GG | c2 c2 d2 d2 | e4!mp! .e2 .e2 | .f2 .f2 .e2 .c2 | (c2 B2) !breath!c2!f! EE | %5
w: Mu- si-|can- ter spee- ler|opp, kunn' I|dock så wack- ert|lå- * ta; Sträng- je-|
w: Lus- tig|Gos- sar, den- ne|Dag Wij så|hag- ligt lå- tom|qwä- * dom: Wij- san|
 A2 A2 (^GA)(BG) | A4 .A2 .A2 | .G2 .^F2 .F2 .G2 | (G2 ^F2) G2 z2 |!mf! c4 (B2 A2) | B4 (A2 G2) | %11
w: klang gör Mood * i *|Kropp, hwad kan|Twist och o- ljud|bå- * ta?|Lil- la *|Gos- se *|
w: haar ock wack- * ert *|laag: nu wäl-|ann, wij sam- man|trä- * dom,|ut- i *|Flo- ræ *|
 A4 (G2 F2) | E8 | z8 |!<(! E2 F2 G2!<)! A2 | (_B2 d2) (c2 B2) |!>(! A4!>)! A4 | d6 e2 | c6 f2 | %19
w: stämm wäl *|inn,||lätt din skä- ra|Röst * op- *|gjäl- la|hur en|Pillt hoos|
w: Ro- sen- *|gåhl,||mä- dan wäd- ret|så * will *|skick- a|al- la|wack- ra|
 _B6 (ec) | A8 |!<(! _B2 c2 d2!<)! e2 | (f8- | f3 _e) (d2 c2) |!<(! (A4 B4)!<)! | G2 z2 z2!f! GG | %26
w: Wän- nen *|sin,|ald- ra- fog- ligst|sig|* * skall *|stäl- *|la. Mu- si-|
w: Flick- ors *|skål,|will wij där i|af-|* * ton *|dric- *|ka. Al- la|
 c2 c2 (Bc)(dB) | c4 z2 dd | e2 e2 (de)(fd) | e4!ff! d2 d2 | (e2 c2) (d2 B2) | (c2 A2) (B2 G2) | %32
w: can- ter spee- * ler *|opp, Mu- si-|can- ter spee- * ler *|opp, Mu- si-|can- * ter *|spee- * ler *|
w: wack- ra Flick- * ors *|skål, al- la|wack- ra Flick- * ors *|skål, al- la|wack- * ra *|Flick- * ors *|
 c2 z2 z2 BB | (c4- cB/A/) B2 | !fermata!G6 z2 |] %35
w: opp, spee- ler|opp, * * * speel|opp!|
w: skål, al- la|Flick- * * * ors|skål!|
V:4
!f! G,G, | E,2 E,2 G,2 G,2 | C,4!mp! .A,,2 .A,,2 | .D,2 ._B,,2 .C,2 .F,2 | %4
w: Mu- si-|can- ter spee- ler|opp, kunn' I|dock så wack- ert|
w: Lus- tig|Gos- sar, den- ne|Dag Wij så|hag- ligt lå- tom|
 G,4 !breath!C,2!f! E,E, | C,2 C,2 E,2 E,2 | A,,4 .^F,,2 .F,,2 | .G,,2 .D,2 .B,,2 .E,2 | %8
w: lå- ta; Sträng- je-|klang gör Mood i|Kropp, hwad kan|Twist och o- ljud|
w: qwä- dom: Wij- san|haar ock wack- ert|laag: nu wäl-|ann, wij sam- man|
 (C,2 D,2) G,,2 z2 |!mf! !courtesy!=F,6 F,2 | E,6 E,2 | D,6 D,2 | (C,2 B,,2 A,,4) | z8 | %14
w: bå- * ta?|Lil- la|Gos- se|stämm wäl|inn, * *||
w: trä- * dom,|ut- i|Flo- ræ|Ro- sen-|gåhl, * *||
!<(! C,2 D,2 E,2!<)! F,2 | (G,2 E,2) (F,2 G,2) |!>(! A,4!>)! D,4 | _B,6 B,2 | A,6 A,2 | G,6 G,2 | %20
w: lätt din skä- ra|Röst * op- *|gjäl- la|hur en|Pillt hoos|Wän- nen|
w: mä- dan wäd- ret|så * will *|skick- a|al- la|wack- ra|Flick- ors|
 (F,2 E,2 D,4) |!<(! G,2 A,2 _B,2!<)! C2 | (F,8- | F,2 C2) (_B,2 A,2) | %24
w: sin, * *|ald- ra- fog- ligst|sig|* * skall *|
w: skål, * *|will wij där i|af-|* * ton *|
!<(! (G,2 ^F,2 G,=F,E,!<)!D,) | C,2 z2 z2!f! G,G, | E,2 E,2 G,2 G,2 | C,4 z2 G,G, | %28
w: stäl- * * * * *|la. Mu- si-|can- ter spee- ler|opp, Mu- si-|
w: dric- * * * * *|ka. Al- la|wack- ra Flick- ors|skål, al- la|
 C2 C2 G,2 (A,B,) | C4!ff! B,2 B,2 | A,4 G,4 | F,4 E,4 | F,2 z2 z2 D,D, | (E,2 F,2 G,2) G,,2 | %34
w: can- ter spee- ler *|opp, Mu- si-|can- ter|spee- ler|opp, spee- ler|opp, * * speel|
w: wack- ra Flick- ors *|skål, al- la|wack- ra|Flick- ors|skål, al- la|Flick- * * ors|
 !fermata!C,6 z2 |] %35
w: opp!|
w: skål!|

